svgs/regular/pipe-section.svg

<svg xmlns="http://www.w3.org/2000/svg" viewBox="0 0 640 512"><!--! Font Awesome Pro 6.6.0 by @fontawesome - https://fontawesome.com License - https://fontawesome.com/license (Commercial License) Copyright 2024 Fonticons, Inc. --><path d="M48 120c0-13.3-10.7-24-24-24S0 106.7 0 120l0 32L0 360l0 32c0 13.3 10.7 24 24 24s24-10.7 24-24l0-8 544 0 0 8c0 13.3 10.7 24 24 24s24-10.7 24-24l0-32 0-208 0-32c0-13.3-10.7-24-24-24s-24 10.7-24 24l0 8-272 0L48 128l0-8zm0 56l272 0 272 0 0 160L48 336l0-160z"/></svg>

<svg xmlns="http://www.w3.org/2000/svg" viewBox="0 0 640 512"><!--! Font Awesome Pro 6.4.2 by @fontawesome - https://fontawesome.com License - https://fontawesome.com/license (Commercial License) Copyright 2023 Fonticons, Inc. --><path d="M48 120c0-13.3-10.7-24-24-24S0 106.7 0 120v32V360v32c0 13.3 10.7 24 24 24s24-10.7 24-24v-8H592v8c0 13.3 10.7 24 24 24s24-10.7 24-24V360 152 120c0-13.3-10.7-24-24-24s-24 10.7-24 24v8H320 48v-8zm0 56H320 592V336H48V176z"/></svg>
